packages/foundations/assets/icons/functional/images/food/breakfast.svg

<svg xmlns="http://www.w3.org/2000/svg" width="32" height="32" fill="none"><path fill="#1A1C1F" fill-rule="evenodd" d="M10.381 3.068a3.25 3.25 0 0 0-1.394.8c-.238.239-.47.58-.899 1.32-.317.549-.586.999-.597.999-.01 0-.158-.084-.328-.187-.259-.156-.36-.186-.619-.187-.18 0-.379.036-.475.086-.389.201-1.131 1.035-1.531 1.72-.651 1.115-.946 2.537-.903 4.349l.021.872-.366.034c-.689.064-.913.287-1.091 1.085-.13.586-.127 2.462.006 3.321.406 2.629 1.368 5.017 2.689 6.674.493.618.85.712 1.53.401l.297-.136.219.434c1.1 2.188 2.742 3.714 4.546 4.226 1.023.29 1.329.15 1.88-.86.2-.367.255-.521.255-.714 0-.323-.162-.626-.437-.821-.182-.128-.274-.155-.529-.155-.355 0-.579.098-.784.343l-.143.169-.223-.101c-.749-.336-1.652-1.138-2.181-1.94-.281-.426-.817-1.433-.781-1.466.01-.009.907-.46 1.994-1.003 2.105-1.052 2.249-1.148 2.366-1.57.069-.248.069-.261 0-.509-.069-.251-.339-.565-.567-.66-.422-.176-.445-.167-3.404 1.29-1.522.749-2.796 1.35-2.833 1.336-.114-.044-.696-1.084-.971-1.734-.675-1.6-1.018-3.218-1.02-4.813l-.001-.837.28-.03c.387-.042 7.802-.511 8.071-.511h.219l.172.654c.203.771.333.996.671 1.16.646.312 1.413-.159 1.413-.868 0-.253-.532-2.286-.666-2.546-.11-.213-.441-.425-.732-.47l-.236-.036.174-.88a15 15 0 0 0 .177-1.017c.002-.074-.059-.26-.134-.411-.109-.219-.202-.316-.453-.468-.174-.106-.316-.212-.316-.237s.206-.4.458-.835c.788-1.356.879-1.602.879-2.351-.001-1.292-.744-2.36-1.962-2.822-.458-.174-1.264-.219-1.741-.098m1.27 2.098c.297.201.427.447.427.811 0 .279-.033.355-.525 1.214-.288.504-.547.931-.575.948-.063.039-1.697-.892-1.696-.966 0-.029.246-.472.546-.984.415-.709.588-.956.723-1.034.38-.221.762-.217 1.1.011m-2.57 4.25c1.297.75 2.377 1.381 2.399 1.403.04.04-.215 1.446-.274 1.508-.045.047-5.501.383-5.542.341-.019-.018-.034-.518-.035-1.111-.001-1.241.079-1.682.447-2.467.189-.405.569-1.037.623-1.037.012 0 1.084.614 2.382 1.363m12.322 2.985c-.159.096-.262.215-.362.42l-.14.285.016 1.194c.015 1.089.026 1.212.128 1.407.34.651 1.304.69 1.715.069l.147-.221v-1.284c0-1.161-.01-1.304-.103-1.492-.239-.48-.922-.664-1.401-.378m-2.603.863-.223.045c-.182.038-.45.293-.557.529-.142.313-.142 1.507.001 1.815a.89.89 0 0 0 .638.537c.461.119.897-.061 1.13-.467.122-.214.131-.281.131-.976 0-.712-.007-.758-.141-.988-.198-.336-.641-.56-.979-.495m-2.32 5.049a1.94 1.94 0 0 0-1.441 1.306c-.099.316-.106.492-.105 2.613.001 2.453.03 2.783.319 3.544.287.76 1.009 1.563 1.751 1.949.878.457 1.733.572 3.876.524 1.626-.037 2.12-.117 2.815-.455 1.282-.624 1.955-1.64 2.199-3.32l.028-.192.759-.03c.55-.022.855-.06 1.106-.14 1.896-.599 2.725-2.835 1.656-4.471a3.13 3.13 0 0 0-1.599-1.255l-.351-.119-5.36-.01c-4.085-.007-5.429.006-5.653.056m7.403 4.18c-.017 2.084-.024 2.243-.124 2.476-.256.601-.653.967-1.252 1.153-.253.079-.548.091-2.134.091-1.792 0-1.847-.003-2.141-.121-.622-.252-.975-.622-1.175-1.234-.107-.33-.116-.482-.138-2.471l-.023-2.12H23.9zm3.44-2.154c.205.085.502.409.549.598.07.277-.006.699-.163.905-.238.312-.488.395-1.189.397l-.6.001v-1.973h.615c.396 0 .677.025.788.072"/></svg>

<svg width="32" height="32" viewBox="0 0 32 32" fill="none" xmlns="http://www.w3.org/2000/svg"><path d="M10.381 3.068 C 9.898 3.190,9.345 3.507,8.987 3.868 C 8.749 4.107,8.517 4.448,8.088 5.188 C 7.771 5.737,7.502 6.187,7.491 6.187 C 7.481 6.187,7.333 6.103,7.163 6.000 C 6.904 5.844,6.803 5.814,6.544 5.813 C 6.364 5.813,6.165 5.849,6.069 5.899 C 5.680 6.100,4.938 6.934,4.538 7.619 C 3.887 8.734,3.592 10.156,3.635 11.968 L 3.656 12.840 3.290 12.874 C 2.601 12.938,2.377 13.161,2.199 13.959 C 2.069 14.545,2.072 16.421,2.205 17.280 C 2.611 19.909,3.573 22.297,4.894 23.954 C 5.387 24.572,5.744 24.666,6.424 24.355 L 6.721 24.219 6.940 24.653 C 8.040 26.841,9.682 28.367,11.486 28.879 C 12.509 29.169,12.815 29.029,13.366 28.019 C 13.566 27.652,13.621 27.498,13.621 27.305 C 13.621 26.982,13.459 26.679,13.184 26.484 C 13.002 26.356,12.910 26.329,12.655 26.329 C 12.300 26.329,12.076 26.427,11.871 26.672 L 11.728 26.841 11.505 26.740 C 10.756 26.404,9.853 25.602,9.324 24.800 C 9.043 24.374,8.507 23.367,8.543 23.334 C 8.553 23.325,9.450 22.874,10.537 22.331 C 12.642 21.279,12.786 21.183,12.903 20.761 C 12.972 20.513,12.972 20.500,12.903 20.252 C 12.834 20.001,12.564 19.687,12.336 19.592 C 11.914 19.416,11.891 19.425,8.932 20.882 C 7.410 21.631,6.136 22.232,6.099 22.218 C 5.985 22.174,5.403 21.134,5.128 20.484 C 4.453 18.884,4.110 17.266,4.108 15.671 L 4.107 14.834 4.387 14.804 C 4.774 14.762,12.189 14.293,12.458 14.293 L 12.677 14.293 12.849 14.947 C 13.052 15.718,13.182 15.943,13.520 16.107 C 14.166 16.419,14.933 15.948,14.933 15.239 C 14.933 14.986,14.401 12.953,14.267 12.693 C 14.157 12.480,13.826 12.268,13.535 12.223 L 13.299 12.187 13.473 11.307 C 13.568 10.823,13.648 10.365,13.650 10.290 C 13.652 10.216,13.591 10.030,13.516 9.879 C 13.407 9.660,13.314 9.563,13.063 9.411 C 12.889 9.305,12.747 9.199,12.747 9.174 C 12.747 9.149,12.953 8.774,13.205 8.339 C 13.993 6.983,14.084 6.737,14.084 5.988 C 14.083 4.696,13.340 3.628,12.122 3.166 C 11.664 2.992,10.858 2.947,10.381 3.068 M11.651 5.166 C 11.948 5.367,12.078 5.613,12.078 5.977 C 12.078 6.256,12.045 6.332,11.553 7.191 C 11.265 7.695,11.006 8.122,10.978 8.139 C 10.915 8.178,9.281 7.247,9.282 7.173 C 9.282 7.144,9.528 6.701,9.828 6.189 C 10.243 5.480,10.416 5.233,10.551 5.155 C 10.931 4.934,11.313 4.938,11.651 5.166 M9.081 9.416 C 10.378 10.166,11.458 10.797,11.480 10.819 C 11.520 10.859,11.265 12.265,11.206 12.327 C 11.161 12.374,5.705 12.710,5.664 12.668 C 5.645 12.650,5.630 12.150,5.629 11.557 C 5.628 10.316,5.708 9.875,6.076 9.090 C 6.265 8.685,6.645 8.053,6.699 8.053 C 6.711 8.053,7.783 8.667,9.081 9.416 M21.403 12.401 C 21.244 12.497,21.141 12.616,21.041 12.821 L 20.901 13.106 20.917 14.300 C 20.932 15.389,20.943 15.512,21.045 15.707 C 21.385 16.358,22.349 16.397,22.760 15.776 L 22.907 15.555 22.907 14.271 C 22.907 13.110,22.897 12.967,22.804 12.779 C 22.565 12.299,21.882 12.115,21.403 12.401 M18.800 13.264 C 18.741 13.275,18.641 13.295,18.577 13.309 C 18.395 13.347,18.127 13.602,18.020 13.838 C 17.878 14.151,17.878 15.345,18.021 15.653 C 18.157 15.948,18.349 16.109,18.659 16.190 C 19.120 16.309,19.556 16.129,19.789 15.723 C 19.911 15.509,19.920 15.442,19.920 14.747 C 19.920 14.035,19.913 13.989,19.779 13.759 C 19.581 13.423,19.138 13.199,18.800 13.264 M16.480 18.313 C 15.791 18.468,15.245 18.963,15.039 19.619 C 14.940 19.935,14.933 20.111,14.934 22.232 C 14.935 24.685,14.964 25.015,15.253 25.776 C 15.540 26.536,16.262 27.339,17.004 27.725 C 17.882 28.182,18.737 28.297,20.880 28.249 C 22.506 28.212,23.000 28.132,23.695 27.794 C 24.977 27.170,25.650 26.154,25.894 24.474 L 25.922 24.282 26.681 24.252 C 27.231 24.230,27.536 24.192,27.787 24.112 C 29.683 23.513,30.512 21.277,29.443 19.641 C 29.058 19.052,28.489 18.605,27.844 18.386 L 27.493 18.267 22.133 18.257 C 18.048 18.250,16.704 18.263,16.480 18.313 M23.883 22.493 C 23.866 24.577,23.859 24.736,23.759 24.969 C 23.503 25.570,23.106 25.936,22.507 26.122 C 22.254 26.201,21.959 26.213,20.373 26.213 C 18.581 26.213,18.526 26.210,18.232 26.092 C 17.610 25.840,17.257 25.470,17.057 24.858 C 16.950 24.528,16.941 24.376,16.919 22.387 L 16.896 20.267 20.398 20.267 L 23.900 20.267 23.883 22.493 M27.323 20.339 C 27.528 20.424,27.825 20.748,27.872 20.937 C 27.942 21.214,27.866 21.636,27.709 21.842 C 27.471 22.154,27.221 22.237,26.520 22.239 L 25.920 22.240 25.920 21.253 L 25.920 20.267 26.535 20.267 C 26.931 20.267,27.212 20.292,27.323 20.339 " fill="#1A1C1F" stroke="none" fill-rule="evenodd"></path></svg>
